X:1
T:Awake, ye dead
T:Henry Purcell
T:Awake, ye dead
C:Henry Purcell
%%score [ 1 2 ] { ( 3 4 ) | ( 5 6 ) }
L:1/8
Q:1/4=75
M:4/4
K:C
V:1 bass nm="Bass 1" snm="B 1"
V:2 bass nm="Bass 2" snm="B 2"
V:3 treble nm="Harpsichord" snm="Hpschd."
V:4 treble 
V:5 bass 
V:6 bass 
V:1
 z8 | z8 | z2 z G, G,2 z G, | A,2 z A, TB,3 C | C,4 z2 z G, | %5
w: ||A- wake, a-|wake, a- wake, ye|dead, the|
 G,/A,/G,/A,/ G,/A,/G,/B,/ A,/B,/A,/B,/ A,/B,/A,/C/ | B,/C/B,/C/ B, A,/G,/ C2 z B,, | %7
w: trum- * * * * * * * * * * * * * * *|* * * * * pet * calls, the|
 C,/D,/C,/D,/ C,/D,/C,/E,/ D,/E,/D,/E,/ D,/E,/D,/F,/ | E,/F,/E,/F,/ E, D,/C,/ G,4 | %9
w: trum- * * * * * * * * * * * * * * *|* * * * * pet * calls,|
 z2 z C, C,2 z D, | E,2 z E, ^F,3 G, | G,,2 z G, G,/A,/G,/A,/ G,/A,/G,/B,/ | %12
w: A- wake, a-|wake, a- wake, ye|dead, the trum- * * * * * * *|
 A,/B,/A,/B,/ A,/B,/A,/C/ B,/C/B,/C/ B,/C/B,/D/ | C/D/C/D/ C/D/C/E/ D/E/D/E/ D C/B,/ | %14
w: |* * * * * * * * * * * * * pet *|
 E2 z C, E,E,G,C, | E,E,G,G, CC B,>C | D4 z2 z D | D _E2 D C2 z C | C _D2 C B,2 C2 | C3 B, C2 z2 | %20
w: calls, A- wake, a- wake, a-|wake, a- wake, a- wake, a- wake, a-|wake, to|sleep, * * * to|sleep, * * * to|sleep no more,|
 z G,A,B, CE,F,G, | C,G,A,B, CE,F,G, | C,2 z G, _A,2 G,2 | F,3 G, G,4 | D,2 z2 G,2 z G,/G,/ | %25
w: no, no, no more, no, no, no|more, no, no, no more, no, no, no|more, to sleep *|* no more;|Hark! hark! from a-|
 B,B,/B,/ D>D F2 z F | E2 E2 E2 D^C/D/ | ^C4 z EEE | E/B,/C/D/ E/D/C/B,/ C/^G,/A,/B,/ C/B,/C/D/ | %29
w: loft, from a- loft, a- loft, the|fro- zen re- * * gion|falls, With noise so|loud * * * * * * * * * * * * * * *|
 E>E F/E/ D/C/ C3 B,/A,/ | A,2 z A, A,/B,/ C3 | z2 z C C/D/ E3 | z2 z B, B,/C/D z B, | %33
w: * it deafs * the * o- cean's *|roar; A- larm'd, * *|a- larm'd, * *|a- larm'd, * * a-|
 G,2 z E F/E/D/C/ B,/A,/G,/F,/ | E,2 z C D/C/B,/A,/ G,/F,/E,/D,/ | C,2 z E F/E/D/C/ B,/A,/G,/F,/ | %36
w: maz'd the clat- * * * * * * t'ring|orbs, the clat- * * * * * * t'ring|orbs, the clat- * * * * * * *|
 E/D/C/B,/ A,/G,/F,/E,/ C/B,/A,/G,/ F,/E,/D,/C,/ | D,/E,/F,/D,/ E,/F,/G,/A,/ D,3 C, | C,8 || %39
w: |* * * * * * * t'ring orbs come|down.|
[K:Eb][M:3/4] z6 | z6 | z2 z2 z G, | E,2 C,2 G,>C | =B,4 z D | E4 z E | D6- | D6- | D>E D>C =B,>C | %48
w: ||The|vir- tuous soul a-|lone ap-|pears Un-|mov'd,||* ap- pears * * Un-|
 =B,4 z2 | z6 | z2 z2 z D, | B,,2 G,,2 D,>G, | ^F,4 z =A, | B,4 z B, | =A,6- | %55
w: mov'd,||The|vir- tuous soul a-|lone ap-|pears Un-|mov'd,|
 A,>B, =A,>G, ^F,>G, | ^F,3 =A, B,>C | D2 D,2 E/D/E/D/ | E/D/E/D/ E/D/E/D/ C/D/E/C/ | D3 D C>B, | %60
w: * ap- pears * * Un-|mov'd while earth's foun-|da- tions shake, * * *||* while earth's foun-|
 =A,2 A,2 B,/A,/B,/A,/ | B,/=A,/B,/A,/ C/B,/C/B,/ C/B,/C/B,/ | =A,3 A, D2 | CB, B,2 =A,G, | %64
w: da- tions shake, * * *||* while earth's|foun- * da- tions *|
 G,4 z D, | G,=A,B,C DD, | E,F,G,=A,B,G, | CD, E,F, G,A, | B,3 C A,2 | G,F, F,3 E, | E,4 z B,, | %71
w: shake, As-|cends, * * * * as-|cends, * * * * *|* as- cends, * * and|mocks the u-|ni- * ver- sal|wreck, as-|
 E,F,G,A,B,G, | A,B,CD E D/C/ | =B,3 D ED | ECD=B,CB, | C=A,B,G,_A,F, | G,E,F,E,F,D, | %77
w: cends, * * * * *|* * * * * and *|mocks the u- *||||
 E,C,D,C,D,=B,, | C,G, E,3 D,/C,/ | C,6 |] %80
w: |* ni- ver- sal *|wreck.|
V:2
 z2 z C, C,2 z D, | E,2 z E, T^F,3 G, | G,,4 z2 z C, | %3
w: A- wake, a-|wake, a- wake, ye|dead, the|
 C,/D,/C,/D,/ C,/D,/C,/E,/ D,/E,/D,/E,/ D,/E,/D,/F,/ | E,/F,/E,/F,/ E, D,/C,/ G,4 | z8 | %6
w: trum- * * * * * * * * * * * * * * *|* * * * * pet * calls,||
 z2 z G, G,2 z G, | A,2 z A, B,3 C | C,2 z C, D,/E,/D,/E,/ D,/E,/D,/F,/ | %9
w: A- wake, a-|wake, a- wake, ye|dead, the trum- * * * * * * *|
 E,/F,/E,/F,/ E, D,/C,/ G,2 z G, | G,/A,/G,/A,/ G,/A,/G,/B,/ A,/B,/A,/B,/ A,/B,/A,/C/ | %11
w: * * * * * pet * calls, the|trum- * * * * * * * * * * * * * * *|
 B,/C/B,/C/ B, A,/G,/ D4 | z2 z D, G,/A,/G,/A,/ G,/A,/G,/B,/ | %13
w: * * * * * pet * calls,|the trum- * * * * * * *|
 A,/B,/A,/B,/ A,/B,/A,/C/ B,/C/B,/C/ B, A,/G,/ | C4 z C,E,E, | G,C,E,E, A,A, G,>A, | %16
w: * * * * * * * * * * * * * pet *|calls, A- wake, a-|wake, a- wake, a- wake, a- wake, a-|
 B,2 z A, A, _B,2 A, | G,2 z G, G, _A,2 G, | F,2 _E,2 D,2 C,2 | G,3 G,, C,G,A,B, | %20
w: wake, to sleep, * *|* to sleep, * *|* * * to|sleep no more, no, no, no|
 CE,F,G, C,G,A,B, | CE,F,G, C,2 z D, | _E,2 D,2 C,2 _B,,2 | _A,,3 G,, G,,4 | z2 D,2 z2 G,2 | %25
w: more, no, no, no more, no, no, no|more, no, no, no more, to|sleep * * *|* no more;|Hark! hark!|
 z G,/G,/ B,B,/B,/ D3 D | D2 C2 _B,3 A, | A,A,A,A, A,/E,/^F,/^G,/ A,/G,/A,/B,/ | %28
w: from a- loft, from a- loft the|fro- zen re- gion|falls, With noise so loud * * * * * * *|
 C/^G,/A,/B,/ C/B,/A,/G,/ A,/E,/^F,/G,/ A,/G,/A,/B,/ | C>A, DD, E,3 E, | A,,4 z2 z F, | %31
w: |* it deafs the o- cean's|roar; A-|
 C,4 z2 z C | G,2 z G, G,/A,/B, z G, | E,4 z2 z B, | C/B,/A,/G,/ F,/E,/D,/C,/ B,,2 z D | %35
w: maz'd a-|maz'd a- larm'd, * * a-|maz'd the|clat- * * * * * * t'ring orbs, the|
 E/D/C/B,/ A,/G,/F,/E,/ D/C/B,/A,/ G,/F,/E,/D,/ | %36
w: clat- * * * * * * * * * * * * * * *|
 C/B,/A,/G,/ F,/E,/D,/C,/ A,/G,/F,/E,/ D,/C,/B,,/A,,/ | B,,/C,/D,/B,,/ C,/D,/E,/F,/ G,,3 G, | %38
w: |* * * * * * * t'ring orbs come|
 C,8 ||[K:Eb][M:3/4] z6 | z6 | z6 | z6 | z2 z2 z G, | E,2 C,2 G,>C | =B,4 z B, | C4 B,2 | %47
w: down.|||||The|vir- tuous soul a-|lone ap-|pears, ap-|
 B,2 A,2 G,>A, | G,4 z D, | B,,2 G,,2 D,>G, | ^F,4 z =A, | B,4 z B, | =A,4 B,^F, | G,6- | G,6- | %55
w: pears * * Un-|mov'd, The|vir- tuous soul a-|lone a-|lone ap-|pears Un- *|mov'd,||
 G,>G, G,/F,/ E,2 D, | D,3 ^F, G,>=A, | B,2 B,,2 C/B,/C/B,/ | C/B,/C/B,/ C/B,/C/B,/ =A,/B,/C/A,/ | %59
w: * ap- pears * * Un-|mov'd while earth's foun-|da- tions shake, * * *||
 B,3 B, =A,>G, | ^F,2 D,2 G,/F,/G,/F,/ | G,/^F,/G,/F,/ =A,/G,/A,/G,/ A,/G,/A,/G,/ | ^F,3 D, B,,2 | %63
w: * while earth's foun-|da- tions shake, * * *||* while earth's|
 C,2 D,3 D, | G,,6 | z2 z2 z G,, | C,D,E,F, G,G,, | A,,B,,C,D, E,F, | G,3 A, F,2 | E,2 B,,3 B,, | %70
w: foun- da- tions|shake,|As-|cends, * * * * as-|cends, * * * * and|mocks the u-|ni- ver- sal|
 E,4 z2 | z2 z2 z C, | F,G,A,B, CF, | G,4 z2 | z2 z D ED | ECD=B,C=A, | =B,G,A,G,A,F, | %77
w: wreck,|as-|cends, * * * * and|mocks|the u- *|||
 G,E,F,E,F,D, | E,C, G,,3 G,, | C,6 |] %80
w: |* ni- ver- sal|wreck.|
V:3
 x8 | z2 c4 d2 | B2 g2- g/f/e/d/ c2- | [Ac]/B/A/B/ A/G/F/G/ [DF]4 | E4 z B/c/ d2 | %5
 [EGc]2 z d/B/ [^FAc]2 z d/A/ | [DGB]2 B/c/d/B/[Gc]e/f/ [cg]2 | [Acf]2 z g/e/ [Bdf]2 z g/d/ | %8
 [ce]2 c2 [GB]4 | z C/D/ [G,CE]2 z E/F/ [G,-DG-]2 | GGce c3 B | %11
 [DGB]2 [GBd]2- [GBd]/c/B/c/ B/d/B/G/ | [A,DA]4 [D-GB]4 | [Ac]4 [Bd]4 | [ce]/[df]/[eg] [ce]4 c2- | %15
 [Gc]2 G2 A4 | [DB]GBc d4 | c2 G2 C4- | C _D2 C B,2 C2- | C3 B, C2 z2 | [CE]2 z2 [EG]2 z2 | %21
 [Gc]2 z/ f/e/d/ [ce]2 [dg-]2 | [cg]4 c4- | c4 [GB]2 z D/D/ | [B,DG]2 z G/D/- [DGB]2 z B/G/- | %25
 [GBd]2 [Bdg]2 [Adf]>[Ge] [FAd]2 | [Be]2 eA G4 | [^CEA]2 z A/E/- [EAc]2 z c/A/- | %28
 [Ace]3 [cea] [Ace]2 [EAc]2- | [EAc]2 [DFA]2 [CEA]3 [B,E^G] | [CEA]A/E/- [EAc]2 z [Ac][cf][Ac] | %31
 [Gce]E/F/ [EG]2 z c/G/- [Gce]2 | [GBd]B,/C/ [B,D]2 z B/G/ d/B/g/d/ | [Gce]2 [ceg]2 [DFB]2 [FBf]2 | %34
 [Gce]2 [EGc]2 [DGd]2 e/f/[Gg] | [EAc]2 [cea]2 [Adf]2 [FBd]2 | [Gce]2 G2 A2 F2 | G2 A2 D3 C | x8 || %39
[K:Eb][M:3/4] z c G2 E2 | G>=A B>d ef/g/ | f>e d3 c | [EGc]4 [G-ce]2 | [G=Bd]2 [DGB]2 [Bdg-]2 | %44
 g2 e>d c2 | [G=Bd]2 B=A G2 | z2 F/E/D- D2- | D2 d2 D2- | D^F GF/G/ =A2 | [GB]>[=Ac] d4- | d6- | %51
 dcB=A [GB]2 | [^F=A]3 G F2 | G2 FE D2- | D3 E F2 | G2 =A3- A/B/ | [D^F]2 D4- | D>[CE] [B,DF]4- | %58
 F6- | F2 B2 E2 | [^F,D]>=A [^FAd]4- | [FAd]2 [GBe]4 | [^F=Ad]2 [DFA]2 [D-G][DB] | %63
 [CE=A][B,EG] [B,DG]2 [=A,D^F]2 | [B,DG]2 z2 z [D^F=A] | [DGB]4 [Bdg]2 | [Gce]4 [DGd]2 | [EAc]6 | %68
 B3 c A2 | GF F3 E | [G,B,E]2 z2 z [B,DF] | [B,EG]4 z [EGc-] | [FAc]2 [Acf]2 [CFA]2 | G6- | G6- | %75
 G6- | G2 A4 | G2 F4 | [CE-]4 [=B,-E][B,D] | [E,G,C]6 |] %80
V:4
 z C/D/ [G,CE]2 z E/F/ [G,-DG-]2 | [G,EG]/G/A/B/ [EG]2 [^FA]4 | [DG]2 [Bd]2 [Gc]2 [EG]2 | %3
 C4 B,3 C | [G,C]4 [DG]4 | x8 | x8 | x8 | G2 [EG][^FA] D4 | x8 | [G,E]Gce [^FA]4 | x8 | x8 | %13
 D6 G2 | G6 [EG]2- | E2 C6 | z6 DG- | G2 G2 C4 | _A,4 G,2 F,2 | G,6 z2 | G,2 z2 C2 z2 | E2 z2 G4- | %22
 G4 _A2 G2 | F4 D2 z2 | x8 | x8 | G2 E4 D2 | x8 | x8 | x8 | x8 | x8 | x8 | x8 | x8 | x8 | %36
 G2 [CE]4 [A,C]2 | [B,D]2 [CE]2 [G,-C]2 [G,B,]2 | [E,G,C]6 z2 ||[K:Eb][M:3/4] x6 | G6 | %41
 A>c- c2 [G=B]2 | x6 | x6 | [ce]2 [Gc]2 [EG]2 | x6 | x6 | x6 | D6- | D4 =A>G | =A2 BAG^F | %51
 G3 ^F D2- | D6- | D2 z2 z B, | =A,6- | A,2 E4 | x6 | x6 | [B,D]4 [=A,C]2 | [B,D]4 =A,>G, | x6 | %61
 x6 | x6 | x6 | x6 | x6 | x6 | x6 | x6 | x6 | x6 | x6 | x6 | [=B,D]=A, G,4- | G,6- | G,6- | %76
 G,2 [EG]2 [DF]2 | [CE]2 [CE]2 [=B,D]2 | G,6 | x6 |] %80
V:5
 x8 | x8 | x8 | x8 | x8 | x8 | x8 | x8 | C,2 A,2 G,2 z G,/D,/ | x8 | x8 | x8 | x8 | x8 | x8 | %15
 G,2 E,4 ^F,2 | G,8- | G,4 G, _A,2 G, | x8 | x8 | x8 | x8 | x8 | x8 | x8 | x8 | x8 | x8 | x8 | x8 | %30
 x8 | x8 | x8 | x8 | x8 | x8 | x8 | x8 | x8 ||[K:Eb][M:3/4] x6 | x6 | x6 | x6 | x6 | x6 | x6 | x6 | %47
 x6 | x6 | x6 | x6 | x6 | x6 | x6 | G,6- | G,2 E,4 | =A,4 C,2 | x6 | x6 | x6 | x6 | x6 | x6 | x6 | %64
 x6 | x6 | x6 | x6 | x6 | x6 | x6 | x6 | x6 | x6 | x6 | x6 | x6 | x6 | x6 | C,6 |] %80
V:6
 C,6 B,,2 | C,4 [A,,A,]4 | [G,,G,]4 [E,,E,]4 | [F,,F,]4 [D,,D,]4 | [C,,C,]2 C,2 B,,4 | %5
w: |||||
 A,,4 [D,A,]4 | [G,,G,]4 [E,,E,]4 | [F,,F,]4 [D,,D,]4 | C,,2 A,,2 G,,4 | [C,E,]6 B,,2 | %10
w: 7 *|||||
 C,4 [A,,A,]4 | [G,,G,]8- | [G,,G,]2 [^F,,^F,]2 [G,,G,]4- | [G,,G,]8 | [C,G,]8- | C,4 A,,4 | G,,8 | %17
w: |||||||
 C,2 D,2 E,4 | F,2 F,,2 G,,2 A,,2 | G,,4 C,2 z2 | C,2 z2 C,2 z2 | C,2 z2 C,2 B,,2 | C,6 _B,,2 | %23
w: ||||||
 _A,,4 G,,4- | G,,/G,/G,/G,/ G,/G,,/G,,/G,,/ G,,/G,/G,/G,/ G,/G,,/G,,/G,,/ | %25
w: ||
 G,,/G,/G,/G,/ G,/G,,/G,,/G,,/ D,/D/D/D/ D/D,/D,/D,/ | %26
w: |
 D,/D/D/D/ C/C,/C,/C,/ _B,,/_B,/B,/B,/ B,/B,,/B,,/B,,/ | %27
w: |
 A,,/A,/A,/A,/ A,/A,,/A,,/A,,/ A,,/A,/A,/A,/ A,/A,,/A,,/A,,/ | %28
w: |
 A,,/A,/A,/A,/ A,/A,,/A,,/A,,/ A,,/A,/A,/A,/ A,/A,,/A,,/A,,/ | %29
w: |
 A,,/A,/A,/A,/ D,/D,,/D,,/D,,/ E,,/E,/E,/E,/ E,/E,,/E,,/E,,/ | %30
w: |
 A,,/A,/A,/A,/ A,/A,,/A,,/A,,/ F,,/F,/F,/F,/ F,/F,,/F,,/F,,/ | %31
w: |
 C,/C/C/C/ C/C,/C,/C,/ C,/C/C/C/ C/C,/C,/C,/ | %32
w: |
 G,,/G,/G,/G,/ G,/G,,/G,,/G,,/ G,,/G,/G,/G,/ G,/G,,/G,,/G,,/ | C,2 z/ C,/C,/C,/ D,2 z/ D,/D,/D,/ | %34
w: ||
 C,2 z/ C,/C,/C,/ B,,2 z/ B,,/B,,/B,,/ | A,,2 z/ A,,/A,,/A,,/ D,2 z/ D,/D,/D,/ | %36
w: ||
 C,2 z/ C,/C,/C,/ A,,2 z/ A,,/A,,/A,,/ | G,,2 z/ F,,/F,,/F,,/ G,,4 | C,6 z G, || %39
w: |||
[K:Eb][M:3/4] E,2 C,2 G,>C | =B,2 G,2 C>E, | F,2 G,2 G,,2 | C,6 | G,,6 | C,6 | G,6 | A,4 G,2 | %47
w: ||||||||
 F,6 | G,2 G,,2 ^F,,2 | G,,6 | D,6 | G,,6 | D,6 | G,6 | F,2 E,2 D,2 | E,2 C,4 | D,4 C,2 | B,,6 | %58
w: |||||||||||
 F,,6 | B,,4 C,2 | D,6 | C,6 | D,4 B,,2 | C,2 D,2 D,,2 | G,=A,B,CDD, | G,,6 | C,4 B,,2 | A,,6 | %68
w: ||||||||||
 G,,4 C,2 | A,,2 B,,4 | E,F,G,A,B,B,, | E,,2 E,2 C,2 | F,2 F,,4 | G,,6- | G,,6- | G,,6- | G,,6- | %77
w: |||||||||
 G,,6- | G,,6 | x6 |] %80
w: |||

